X:264
T:Balmoral Strathspey
R:Strathspey
C:Robert R. Gourlay
K:A
M:C
L: 1/8
|: c|"A"C>AE>A "D"F<A"A"E>c|"Bm"d>B"A"c>A "E"G<BB>c| "A"C>AE>A "D"F<Ad>f|"A"(3ecA "E"(3EdB "A"c<A A :|
d|"A"c>Aa>e "D"f<a"E"e>g|"A"a>ec>A "E"G<BB>d|"A"c>Aa>e "D"f<a"A"e>f|"A"(3ecA "E"(3EdB "A"c<AA>d|
"A"c>Aa>e "D"f<a"E"e>g|"A"a>ec>A "E"G<BB>c|"A"(3AEA (3cAc (3ece "D"(3agf|"A"(3ecA "E"(3EdB "A"c<A A |]
